X:692
T:Post's
S:Bruce & Emmett's Drummers and Fifers Guide (1862), p. 69
M:2/4
L:1/16
Q:1/4=100
K:D
%%MIDI program 72
%%MIDI transpose 8
%%MIDI ratio 3 1
(3EF^G|A4-Adfd|A4-Adfd|dcBA ^GABc|{e}dcde f3F|G4-GBeG|
F4-FAdF|EFGA ^AB^Bc|d2d2d2::cd|eAMA2 eAMA2|gAfA eAMA2|
dfAf gfed|cedf e2cd|eAMA2 eAMA2|gAfA eAMA2|FAdf EAce|d2f2d2:|
